X: 092
T: Mr Sloan's Reel
C: attr. John French (1753-1803)
R: reel
B: "John French Collection", John French ed. p.9 #2
S: http://www.heallan.com/french.asp
Z: 2012 John Chambers <jc:trillian.mit.edu>
M: C
L: 1/8
K: F
C |\
F2(cF) Acfd | cAFA GFDG | F2(cF) Acfd | cAGA F/F/F F :|
c |\
facf dfBd | cAFA TGFDc | facf dfBd | cfeg f/f/f (fc) |
fadf cfBd | cfcA TGFGA | FcAc Bdgb | afce f/f/f f |]

%%sep 2 1 500
%%sep 1 1 500

